Dominus_Dark_Funeral/scalable/places/folder-important.svg

<svg xmlns="http://www.w3.org/2000/svg" xmlns:xlink="http://www.w3.org/1999/xlink" width="64" height="64" version="1"><defs><linearGradient id="e"><stop offset="0" stop-color="#0b2228"/><stop offset="1" stop-color="#0b2228" stop-opacity="0"/></linearGradient><linearGradient id="d"><stop offset="0" stop-color="#0b2228"/><stop offset="1" stop-color="#0b2228" stop-opacity="0"/></linearGradient><linearGradient id="b"><stop offset="0" stop-color="#216778"/><stop offset=".27" stop-color="#164450"/><stop offset=".29" stop-color="#216778"/><stop offset=".49" stop-color="#2c89a0"/><stop offset=".71" stop-color="#216778"/><stop offset=".73" stop-color="#164450"/><stop offset="1" stop-color="#216778"/></linearGradient><linearGradient id="a"><stop offset="0" stop-color="#216778"/><stop offset=".18" stop-color="#164450"/><stop offset=".19" stop-color="#216778"/><stop offset=".49" stop-color="#2c89a0"/><stop offset=".8" stop-color="#216778"/><stop offset=".81" stop-color="#164450"/><stop offset="1" stop-color="#216778"/></linearGradient><linearGradient id="f"><stop offset="0" stop-color="#0b2228"/><stop offset="1" stop-color="#0b2228" stop-opacity="0"/></linearGradient><linearGradient id="c"><stop offset="0" stop-color="#216778"/><stop offset=".12" stop-color="#164450"/><stop offset=".15" stop-color="#2c89a0"/><stop offset=".49" stop-color="#37abc8"/><stop offset=".85" stop-color="#2c89a0"/><stop offset=".88" stop-color="#164450"/><stop offset="1" stop-color="#216778"/></linearGradient><linearGradient xlink:href="#a" id="h" x1="5.27" y1="51.93" x2="59.12" y2="51.93" gradientUnits="userSpaceOnUse"/><linearGradient xlink:href="#b" id="g" x1="-.04" y1="59.46" x2="64.18" y2="59.46" gradientUnits="userSpaceOnUse"/><linearGradient xlink:href="#c" id="i" x1="7.65" y1="24.52" x2="56.44" y2="24.52" gradientUnits="userSpaceOnUse"/><linearGradient xlink:href="#d" id="j" x1="13.48" y1="63.47" x2="13.48" y2="26.47" gradientUnits="userSpaceOnUse"/><linearGradient xlink:href="#e" id="k" x1="5.27" y1="55.14" x2="5.27" y2="48.73" gradientUnits="userSpaceOnUse"/><linearGradient xlink:href="#f" id="l" x1="-.04" y1="63.9" x2="-.04" y2="55.02" gradientUnits="userSpaceOnUse"/></defs><path d="M-.04 55.02h64.22v8.88H-.04z" fill="url(#g)"/><path d="M5.27 48.73h53.86v6.42H5.27z" fill="url(#h)"/><path d="M31.46.28C23.83.35 15.93 3.9 7.66 11.94v36.83h48.76V20.21h.02v-8.27C48.4 4.58 40.11.19 31.46.28z" fill="url(#i)"/><path d="M31.44.28C23.8.35 15.9 3.9 7.64 11.94v36.83h48.75V20.21h.03v-8.27C48.37 4.58 40.09.19 31.44.28z" fill="url(#j)"/><path d="M5.27 48.73h53.86v6.42H5.27z" fill="url(#k)"/><path d="M-.04 55.02h64.22v8.88H-.04z" fill="url(#l)"/><path d="M32.11 13.55A12.42 12.42 0 0 0 19.7 26.02a12.42 12.42 0 0 0 12.45 12.43A12.42 12.42 0 0 0 44.56 26a12.42 12.42 0 0 0-12.42-12.42zm0 2.76a1.66 1.66 0 0 1 .16 0 1.5 1.5 0 0 1 .35.05c.92.23 1.36 1.27 1.2 2.14-.33 3.7-.76 7.36-1.04 11.07H31.7c-.32-3.87-.78-7.67-1.17-11.5a2.14 2.14 0 0 1 .02-.38 1.66 1.66 0 0 1 1.56-1.38zm.04 15.58a1.8 1.8 0 0 1 1.6.94 1.77 1.77 0 0 1-1.06 2.51c-1.06.37-2.3-.53-2.3-1.68a1.75 1.75 0 0 1 .69-1.36 1.59 1.59 0 0 1 1.07-.41z" fill="#1d2a2e"/></svg>

<?xml version="1.0" encoding="UTF-8" standalone="no"?>
<svg
   xmlns:dc="http://purl.org/dc/elements/1.1/"
   xmlns:cc="http://creativecommons.org/ns#"
   xmlns:rdf="http://www.w3.org/1999/02/22-rdf-syntax-ns#"
   xmlns:svg="http://www.w3.org/2000/svg"
   xmlns="http://www.w3.org/2000/svg"
   xmlns:xlink="http://www.w3.org/1999/xlink"
   xmlns:sodipodi="http://sodipodi.sourceforge.net/DTD/sodipodi-0.dtd"
   xmlns:inkscape="http://www.inkscape.org/namespaces/inkscape"
   width="64"
   height="64"
   version="1"
   id="svg84"
   sodipodi:docname="folder-important.svg"
   inkscape:version="0.92.4 (5da689c313, 2019-01-14)">
  <metadata
     id="metadata88">
    <rdf:RDF>
      <cc:Work
         rdf:about="">
        <dc:format>image/svg+xml</dc:format>
        <dc:type
           rdf:resource="http://purl.org/dc/dcmitype/StillImage" />
        <dc:title></dc:title>
      </cc:Work>
    </rdf:RDF>
  </metadata>
  <sodipodi:namedview
     pagecolor="#ffffff"
     bordercolor="#666666"
     borderopacity="1"
     objecttolerance="10"
     gridtolerance="10"
     guidetolerance="10"
     inkscape:pageopacity="0"
     inkscape:pageshadow="2"
     inkscape:window-width="1112"
     inkscape:window-height="480"
     id="namedview86"
     showgrid="false"
     inkscape:zoom="3.6875"
     inkscape:cx="2.8474576"
     inkscape:cy="32"
     inkscape:window-x="0"
     inkscape:window-y="25"
     inkscape:window-maximized="0"
     inkscape:current-layer="svg84" />
  <defs
     id="defs68">
    <linearGradient
       id="e">
      <stop
         offset="0"
         stop-color="#0b2228"
         id="stop2" />
      <stop
         offset="1"
         stop-color="#0b2228"
         stop-opacity="0"
         id="stop4" />
    </linearGradient>
    <linearGradient
       id="d">
      <stop
         offset="0"
         stop-color="#0b2228"
         id="stop7" />
      <stop
         offset="1"
         stop-color="#0b2228"
         stop-opacity="0"
         id="stop9" />
    </linearGradient>
    <linearGradient
       id="b">
      <stop
         offset="0"
         stop-color="#216778"
         id="stop12" />
      <stop
         offset=".27"
         stop-color="#164450"
         id="stop14" />
      <stop
         offset=".29"
         stop-color="#216778"
         id="stop16" />
      <stop
         offset=".49"
         stop-color="#2c89a0"
         id="stop18" />
      <stop
         offset=".71"
         stop-color="#216778"
         id="stop20" />
      <stop
         offset=".73"
         stop-color="#164450"
         id="stop22" />
      <stop
         offset="1"
         stop-color="#216778"
         id="stop24" />
    </linearGradient>
    <linearGradient
       id="a">
      <stop
         offset="0"
         stop-color="#216778"
         id="stop27" />
      <stop
         offset=".18"
         stop-color="#164450"
         id="stop29" />
      <stop
         offset=".19"
         stop-color="#216778"
         id="stop31" />
      <stop
         offset=".49"
         stop-color="#2c89a0"
         id="stop33" />
      <stop
         offset=".8"
         stop-color="#216778"
         id="stop35" />
      <stop
         offset=".81"
         stop-color="#164450"
         id="stop37" />
      <stop
         offset="1"
         stop-color="#216778"
         id="stop39" />
    </linearGradient>
    <linearGradient
       id="f">
      <stop
         offset="0"
         stop-color="#0b2228"
         id="stop42" />
      <stop
         offset="1"
         stop-color="#0b2228"
         stop-opacity="0"
         id="stop44" />
    </linearGradient>
    <linearGradient
       id="c">
      <stop
         offset="0"
         stop-color="#216778"
         id="stop47" />
      <stop
         offset=".12"
         stop-color="#164450"
         id="stop49" />
      <stop
         offset=".15"
         stop-color="#2c89a0"
         id="stop51" />
      <stop
         offset=".49"
         stop-color="#37abc8"
         id="stop53" />
      <stop
         offset=".85"
         stop-color="#2c89a0"
         id="stop55" />
      <stop
         offset=".88"
         stop-color="#164450"
         id="stop57" />
      <stop
         offset="1"
         stop-color="#216778"
         id="stop59" />
    </linearGradient>
    <linearGradient
       xlink:href="#a"
       id="h"
       x1="5.27"
       y1="51.93"
       x2="59.12"
       y2="51.93"
       gradientUnits="userSpaceOnUse" />
    <linearGradient
       xlink:href="#b"
       id="g"
       x1="-.04"
       y1="59.46"
       x2="64.18"
       y2="59.46"
       gradientUnits="userSpaceOnUse" />
    <linearGradient
       xlink:href="#c"
       id="i"
       x1="7.65"
       y1="24.52"
       x2="56.44"
       y2="24.52"
       gradientUnits="userSpaceOnUse" />
    <linearGradient
       xlink:href="#d"
       id="j"
       x1="13.48"
       y1="63.47"
       x2="13.48"
       y2="26.47"
       gradientUnits="userSpaceOnUse" />
    <linearGradient
       xlink:href="#e"
       id="k"
       x1="5.27"
       y1="55.14"
       x2="5.27"
       y2="48.73"
       gradientUnits="userSpaceOnUse" />
    <linearGradient
       xlink:href="#f"
       id="l"
       x1="-.04"
       y1="63.9"
       x2="-.04"
       y2="55.02"
       gradientUnits="userSpaceOnUse" />
  </defs>
  <path
     d="M -0.04,55.02 H 64.18 V 63.9 H -0.04 Z"
     id="path70"
     style="fill:url(#g)"
     inkscape:connector-curvature="0" />
  <path
     d="m 5.27,48.73 h 53.86 v 6.42 H 5.27 Z"
     id="path72"
     style="fill:url(#h)"
     inkscape:connector-curvature="0" />
  <path
     d="M 31.46,0.28 C 23.83,0.35 15.93,3.9 7.66,11.94 V 48.77 H 56.42 V 20.21 h 0.02 V 11.94 C 48.4,4.58 40.11,0.19 31.46,0.28 Z"
     id="path74"
     style="fill:url(#i)"
     inkscape:connector-curvature="0" />
  <path
     d="M 31.44,0.28 C 23.8,0.35 15.9,3.9 7.64,11.94 V 48.77 H 56.39 V 20.21 h 0.03 V 11.94 C 48.37,4.58 40.09,0.19 31.44,0.28 Z"
     id="path76"
     style="fill:url(#j)"
     inkscape:connector-curvature="0" />
  <path
     d="m 5.27,48.73 h 53.86 v 6.42 H 5.27 Z"
     id="path78"
     style="fill:url(#k)"
     inkscape:connector-curvature="0" />
  <path
     d="M -0.04,55.02 H 64.18 V 63.9 H -0.04 Z"
     id="path80"
     style="fill:url(#l)"
     inkscape:connector-curvature="0" />
  <path
     d="M 32.11,13.55 A 12.42,12.42 0 0 0 19.7,26.02 12.42,12.42 0 0 0 32.15,38.45 12.42,12.42 0 0 0 44.56,26 12.42,12.42 0 0 0 32.14,13.58 Z m 0,2.76 a 1.66,1.66 0 0 1 0.16,0 1.5,1.5 0 0 1 0.35,0.05 c 0.92,0.23 1.36,1.27 1.2,2.14 -0.33,3.7 -0.76,7.36 -1.04,11.07 H 31.7 C 31.38,25.7 30.92,21.9 30.53,18.07 a 2.14,2.14 0 0 1 0.02,-0.38 1.66,1.66 0 0 1 1.56,-1.38 z m 0.04,15.58 a 1.8,1.8 0 0 1 1.6,0.94 1.77,1.77 0 0 1 -1.06,2.51 c -1.06,0.37 -2.3,-0.53 -2.3,-1.68 a 1.75,1.75 0 0 1 0.69,-1.36 1.59,1.59 0 0 1 1.07,-0.41 z"
     id="path82"
     inkscape:connector-curvature="0"
     style="fill:#1d2a2e" />
</svg>
